X:5082
T:The New Leaf
M:6/8
R:Jig
L:1/8
Q:180
C:Aidan Crossey
K:G
|:BdB GBd|gfe d2B|cac BgB|ABG F2D|
BdB GBd|gfe d2B|cac BgB|AGF G3:||
|:ABA ABc|dBB gBB|ABA ABc|dBG dBG|
ABA ABc|dBB gBB|1 ABA ABc|def g3:||
2 ecc fdd|def g3|
